X:16797
T:The Guns Of the Magnificent Seven
R:Reel
C:Fintan McManus
S:Seamus Egan
H:
N:Last part played as is - those bars are meant to be short of a beat! 
D:Solo Album #1 
Z:Adrian Scahill
M:4/4
L:1/8
K:G
EAAG ABcA|G3A =F3A|EAAG ABcd|eged cABG|\
EAAG ABcA|G3A =F3A|EAAG ABcd|eged cAA2||
eA (3Bcd eaa2|gedB GABG|eA (3Bcd eaae|gedB BAGB|\
eA (3Bcd eaa2|gedB GABG|ABcd eaae|gedB BAA2||
e2 dB AeeB|dBGA (3Bcd eg|dBAa aege|dBBA (3AAA|
eBdB AeeB|dBGA (3Bcd eg|dBAa aege|dBBA AG||
